currency-mnt.svg

<svg fill="currentColor" viewBox="0 0 24 24"><path d="M13 5v3.62l4-1.45v2.12l-4 1.45v1.76l4-1.43v2.13l-4 1.45V21h-2v-5.62l-4 1.46v-2.13l4-1.47v-1.77l-4 1.45V10.8l4-1.45V5H5V3h14v2z"/></svg>

<svg  viewBox="0 0 24 24" fill="currentColor"><path  d="M13 5V8.62L17 7.17V9.29L13 10.74V12.5L17 11.07V13.2L13 14.65V21H11V15.38L7 16.84V14.71L11 13.24V11.47L7 12.92V10.8L11 9.35V5H5V3H19V5H13Z"/></svg>
